X: 1
T: The Fallen Towers
T: (C) Terry Traub, November 2001
C: Slowly
M: 4/4
L: 1/4
R: Air
K: Eb
B, |: "Eb" E G/A/ B c/d/| "Eb"e3 d| "Ab" c B "Eb"A/G/F/E/|"F"F>E "Bb"D B,|
"Eb" E G/A/ "Bb"B c/d/| "Gm   Ab"e3 d/c/| "Eb" B A/G/ "Bb"F E/D/ |"Eb"E3 :|
B| "Eb"e > g b B| "Eb"e > g b b| "Ab"a "Eb"g "Bb"f/e/d/e/|"F"f>e "Bb"d B|
"Eb"e > g b B| "Cm"e > g "Eb"b b| "Ab"a/g/f/e/ "Bb"f e/d/|"Eb"e3 B|
"Eb"e > g b B| "Cm"e > g "Gm"b b| "Ab"a "Eb"g "Bb"f/e/d/e/|"F"f>e "Bb"d B|
 "Eb" E G/A/ "Bb"B c/d/| "Cm  Ab"e3 d/c/| "Eb" B A/G/ "Bb"F E/D/| "Eb"E4 |]

